X:1
T:Who Shall Abide?
T:Who Shall Abide?
T:William Augustine Ogden
T:Margaret Moody, 1892, alt.
T:Public Domain Courtesy of the Cyber Hymnal™
C:William Augustine Ogden
Z:Public Domain
Z:Courtesy of the Cyber Hymnal™
%%score ( 1 2 ) ( 3 4 )
L:1/8
Q:1/4=180
M:6/4
K:Bb
V:1 treble 
V:2 treble 
V:3 bass 
V:4 bass 
V:1
 [DF]2 [^C=E]2 [DF]2 [_EG]4 [DF]2 | [DF]6 [DB]4 z2 | [GB]2 [FA]2 [EG]2 [GB]4 [EG]2 | %3
w: 1.~Who shall a- bide His|com- ing?|Who shall His chos- en|
w: 2.~Who shall a- bide His|com- ing?|Who shall He claim His|
w: 3.~Who shall a- bide His|com- ing?|They who are un- de-|
 [DF]6- [DF]4 z2 | [DF]2 [^C=E]2 [DF]2 [_EG]4 [DF]2 | [DB]6 [Fd]4 z2 | %6
w: be? *|When at the Lord’s ap-|pear- ing,|
w: own? *|Stand in the day of|judg- ment,|
w: filed; *|They who in faith have|fol- lowed|
 [Fc]2 [FA]2 F2 [FA]4 [=EG]2 | F6- F4 z2 ||"^Refrain" [Ec]8 [DB]2 [CA]2 | [DB]6- [DB]4 z2 | %10
w: What shall He say of|thee? *|Who shall a-|bide? *|
w: Spot- less be- fore His|throne? *|Who shall a-|bide? *|
w: Christ, as a lit- tle|child. *|They shall a-|bide, *|
 e8 e2 d2 c2 | d6- [Fd]4 z2 | [Fd]2 [Ec]2 [DB]2 [GB]2 [FA]2 [EG]2 | [DF]4 [^C=E]2 [DF]4 [DF]2 | %14
w: Who shall a- bide?|When at|* the judg- ment, O Christ,|ap- pear- ing, Who|
w: Who shall a- bide?|When at|* the judg- ment, O Christ,|ap- pear- ing, Who|
w: They shall a- bide.|When at|* the judg- ment, O Christ,|ap- pear- ing, They|
 [EG]2 [FA]2 [FB]2 [Ec]4 [FA]2 | [DB]12 |] %16
w: shall a- bide with Thee?||
w: shall a- bide with Thee?||
w: shall a- bide with Thee.||
V:2
 x12 | x12 | x12 | x12 | x12 | x12 | x4 F2 x6 | F6- F4 x2 || x12 | x12 | (A2 A2 A2 A4) x4 | %11
 B2 F2 G2 x6 | x12 | x12 | x12 | x12 |] %16
V:3
 [B,,B,]2 [B,,B,]2 [B,,B,]2 [B,,B,]4 [B,,B,]2 | [B,,B,]6 [B,,B,]4 z2 | %2
 [E,B,]2 [E,B,]2 [E,B,]2 [E,B,]4 [E,B,]2 | [B,,B,]6- [B,,B,]4 z2 | %4
 [B,,B,]2 [B,,B,]2 [B,,B,]2 [B,,B,]4 [B,,B,]2 | [B,,B,]6 [B,,B,]4 z2 | %6
 [C,A,]2 [C,C]2 [C,A,]2 [C,C]4 [C,B,]2 | [F,A,]6- [F,A,]4 z2 || %8
 ([F,A,]2 [F,A,]2 [F,A,]2 [F,A,]2) z4 | ([B,,B,]2 [B,,F,]2 [B,,G,]2 [B,,F,]4) z2 | C8 C2 B,2 A,2 | %11
 B,6- [B,,B,]4 z2 | [B,,B,]2 [B,,B,]2 [B,,B,]2 [E,B,]2 [E,B,]2 [E,B,]2 | %13
 [B,,B,]4 [B,,B,]2 [B,,B,]4 [B,,B,]2 | [E,B,]2 [E,C]2 [D,B,]2 [C,G,]4 F,2 | [B,,F,]12 |] %16
V:4
 x12 | x12 | x12 | x12 | x12 | x12 | x12 | x12 || x12 | x12 | (F,2 F,2 F,2 F,4) x4 | %11
 B,,2 B,,2 B,,2 x6 | x12 | x12 | x10 F,2 | x12 |] %16

